images/about.svg

<svg fill="none" height="16" viewBox="0 0 16 16" width="16" xmlns="http://www.w3.org/2000/svg"><g stroke="#111" stroke-linecap="round" stroke-linejoin="round" stroke-width="1.33"><path d="m13.3332 14v-1.3333c0-.7073-.281-1.3856-.7811-1.8857-.5001-.5-1.1784-.781-1.8856-.781h-5.33333c-.70724 0-1.38552.281-1.88562.781-.50009.5001-.78105 1.1784-.78105 1.8857v1.3333"/><path d="m8.00016 7.33333c1.47276 0 2.66664-1.1939 2.66664-2.66666s-1.19388-2.66667-2.66664-2.66667-2.66666 1.19391-2.66666 2.66667 1.1939 2.66666 2.66666 2.66666z"/></g></svg>

<svg width="16" height="16" viewBox="0 0 16 16" fill="none" xmlns="http://www.w3.org/2000/svg">
<path d="M13.3332 14V12.6667C13.3332 11.9594 13.0522 11.2811 12.5521 10.781C12.052 10.281 11.3737 10 10.6665 10H5.33317C4.62593 10 3.94765 10.281 3.44755 10.781C2.94746 11.2811 2.6665 11.9594 2.6665 12.6667V14" stroke="#111111" stroke-width="1.33" stroke-linecap="round" stroke-linejoin="round"/>
<path d="M8.00016 7.33333C9.47292 7.33333 10.6668 6.13943 10.6668 4.66667C10.6668 3.19391 9.47292 2 8.00016 2C6.5274 2 5.3335 3.19391 5.3335 4.66667C5.3335 6.13943 6.5274 7.33333 8.00016 7.33333Z" stroke="#111111" stroke-width="1.33" stroke-linecap="round" stroke-linejoin="round"/>
</svg>
